!!!!SEGMENT: pl-kk--kk-i-7--019_anonim--sanctus.krn
!!!cenid: 16xx:809
!!!COM: Anonim
!!!COM-rismID: pe30004985
!!!CDT:
!!!CNT:
!!!OTL: Sanctus
!!!PDT:
!!!AGN: Sacred
!!!SMS-siglum: PL-Kk
!!!SMS-shelfmark: Kk.I.7
!!!SMS-shelfwork: 019 W
!!!SMS-variant:
!!!SMS-altvar:
!!!NIFC-rismSourceID: 300258077
!!!NIFC-rismChildID: 300258096
!!!NIFC-islandoraID: pl-kk:1956
!!!URL-pdf-islandora: https://repozytorium.nifc.pl/islandora/object/pl-kk%3A1956/datastream/PDF/view
!!!URL-scan: https://polish.musicsources.pl/pl/lokalizacje/galeria/rekopisy/6140 @EN{Scan on Polish Music Sources Website} @PL{Skany w portalu Dziedzictwo Muzyki Polskiej w otwartym dostępie}
!!!IIIF: https://repozytorium.nifc.pl/islandora/object/pl-kk%3A1956/datastream/IIIF/view
!!!ONB-nifc: UWAGA: C (skan 0013-0014, s.21-22), A (0100, s.21), T(0176, s.17), B(0266, s.22). Następny utwór: Benedictus
!!!AIN: 1 alto 1 bass 1 soprn 1 tenor
!!!key:
**kern	**text	**kern	**text	**kern	**text	**kern	**text
*part4	*part4	*part3	*part3	*part2	*part2	*part1	*part1
*staff4	*staff4	*staff3	*staff3	*staff2	*staff2	*staff1	*staff1
*Ibass	*	*Itenor	*	*Ialto	*	*Isoprn	*
*I"[BASSVS.]	*	*I"[TENOR.]	*	*I"[ALTVS.]	*	*I"[CANTVS.]	*
*I'[B]	*	*I'[T II]	*	*I'[T I]	*	*I'[A]	*
*clefF4	*	*clefC4	*	*clefC4	*	*clefC3	*
*k[b-]	*	*k[b-]	*	*k[b-]	*	*k[b-]	*
*F:	*	*F:	*	*F:	*	*F:	*
*M2/1	*	*M2/1	*	*M2/1	*	*M2/1	*
*met(C|)	*	*met(C|)	*	*met(C|)	*	*met(C|)	*
=1-	=1-	=1-	=1-	=1-	=1-	=1-	=1-
*xywh-#266:659,420,6536,926	*	*xywh-#176:7187,1760,6093,997	*	*xywh-#100:7122,1202,6215,801	*	*xywh-#13:7139,3808,6037,815	*
*lig	*	*lig	*	*	*	*	*
!	!	!	!	!	!	!LO:TX:t=P:problem=kreska pseudotaktowa	!
1C/	San-	1c\	San-	2r	.	0g\	San-
.	.	.	.	1c\	San-	.	.
!LO:TX:t=P:problem=kreska pseudotaktowa	!	!	!	!	!	!	!
1G\	.	1d\	.	.	.	.	.
*	*	*	*	*2\right	*	*	*
!	!	!	!	!LO:TX:t=P:problem=kreska pseudotaktowa	!	!	!
.	.	.	.	2B-\	.	.	.
!	!	!	!	!LO:TX:t=P:problem=all\right&colon; global	!	!	!
*Xlig	*	*Xlig	*	*	*	*	*
=2-	=2-	=2-	=2-	=2-	=2-	=2-	=2-
!LO:TX:t=P:problem=all\right&colon; global	!	!	!	!	!	!	!
*2\right	*	*lig	*	*	*	*lig	*
2.A\	.	1c\	.	2c\	.	1e\	.
.	.	.	.	2A/	.	.	.
4G\	.	.	.	.	.	.	.
4F\	.	1A\	.	2d\	.	1.f\	.
4E\	.	.	.	.	.	.	.
4D/	.	.	.	1c\	-ct(us)	.	.
!LO:TX:t=P:problem=kreska pseudotaktowa	!	!	!	!	!	!	!
4C/	.	.	.	.	.	.	.
*	*	*Xlig	*	*	*	*Xlig	*
=3-	=3-	=3-	=3-	=3-	=3-	=3-	=3-
1D\	.	1F/	.	.	.	.	.
!	!	!	!	!LO:TX:t=P:problem=kreska pseudotaktowa	!	!LO:TX:t=P:problem=all\right&colon; global	!
.	.	.	.	2B-\	.	4e\	.
!	!	!	!	!	!	!LO:TX:t=P:problem=kreska pseudotaktowa	!
.	.	.	.	.	.	4d\	.
*	*	*lig	*	*	*	*	*
!LO:TX:t=P:problem=kreska pseudotaktowa	!	!	!	!LO:TX:t=P:problem=kreska pseudotaktowa	!	!	!
1C/	.	1G/	.	1c\	.	4c\	.
.	.	.	.	.	.	4d\	.
.	.	.	.	.	.	4e\	.
!	!	!	!	!	!	!LO:TX:t=P:problem=kreska pseudotaktowa	!
.	.	.	.	.	.	4c\	.
=4-	=4-	=4-	=4-	=4-	=4-	=4-	=4-
*	*	*	*	*	*	*2\right	*
4FF/	.	1A\	.	2r	.	2f\	.
4GG/	.	.	.	.	.	.	.
*	*	*	*	*	*ij	*	*
4AA/	.	.	.	1c\	San-	4e\	.
!LO:TX:t=P:problem=kreska pseudotaktowa	!	!	!	!	!	!LO:TX:t=P:problem=kreska pseudotaktowa	!
4BB-/	.	.	.	.	.	4d\	.
*	*	*Xlig	*	*	*	*	*
2C/	-ctus	0G/	.	.	.	2c/	.
2D/	.	.	.	2B-\	.	1f\	.
=5-	=5-	=5-	=5-	=5-	=5-	=5-	=5-
1C/	.	.	.	1c\	.	.	.
.	.	.	.	.	.	2e\	.
0FF/;	.	0F/;	-ctus	0c\;<	-ctus	0f\;<	-ctus
*	*	*	*	*	*Xij	*	*
=6||-	=6||-	=6||-	=6||-	=6||-	=6||-	=6||-	=6||-
*M2/1	*	*M2/1	*	*M2/1	*	*M2/1	*
*met(C|)	*	*met(C|)	*	*met(C|)	*	*met(C|)	*
!LO:TX:t=P:problem=brak oznaczenia menzuralnego	!	!	!	!	!	!	!
*	*	*lig	*	*	*	*	*
!	!	!LO:TX:t=P:problem=brak oznaczenia menzuralnego	!	!	!	!	!
2.BB-/	San-	1B-\	San-	2.F/	San-	2rA	.
.	.	.	.	.	.	2.f\	San-
!LO:TX:t=P:problem=kreska pseudotaktowa	!	!	!	!LO:TX:t=P:problem=kreska pseudotaktowa	!	!	!
4AA/	.	.	.	4G/	.	.	.
4FF/	.	1A\	.	4A/	.	.	.
4GG/	.	.	.	4B-\	.	4e\	.
!	!	!	!	!LO:TX:t=P:problem=kreska pseudotaktowa	!	!	!
4AA/	.	.	.	1.c\	.	4c\	.
!LO:TX:t=P:problem=kreska pseudotaktowa	!	!	!	!	!	!LO:TX:t=P:problem=kreska pseudotaktowa	!
4BB-/	.	.	.	.	.	4d\	.
*	*	*Xlig	*	*	*	*	*
=7-	=7-	=7-	=7-	=7-	=7-	=7-	=7-
*	*	*lig	*	*	*	*	*
4C/	.	1G/	.	.	.	4e\	.
4D/	.	.	.	.	.	4f\	.
!LO:TX:t=P:problem=kreska pseudotaktowa	!	!	!	!	!	!LO:TX:t=P:problem=kreska pseudotaktowa	!
2E\	.	.	.	.	.	[y2g\	.
!	!	!	!	!	!	!LO:N:xstem:cue	!
2D/	.	1A\	.	2d\	.	4g\]	.
.	.	.	.	.	.	4f\	.
2F\	.	.	.	4c\	.	1f\	.
!	!	!	!	!LO:TX:t=P:problem=kreska pseudotaktowa	!	!	!
.	.	.	.	4B-\	.	.	.
*	*	*Xlig	*	*	*	*	*
=8-	=8-	=8-	=8-	=8-	=8-	=8-	=8-
!LO:TX:t=P:problem=kreska pseudotaktowa	!	!	!	!	!	!	!
1C/	.	1G/	.	2.c\	.	.	.
!	!	!	!	!	!	!LO:TX:t=P:problem=kreska pseudotaktowa	!
.	.	.	.	.	.	2e\	.
.	.	.	.	4B-\	.	.	.
1FF/	.	00F/;	-ctus	4A/	.	2.f\	.
.	.	.	.	4G/	.	.	.
!	!	!	!	!LO:TX:t=P:problem=kreska pseudotaktowa	!	!	!
.	.	.	.	2A/	.	.	.
!	!	!	!	!	!	!LO:TX:t=P:problem=kreska pseudotaktowa	!
.	.	.	.	.	.	4e\	.
=9-	=9-	=9-	=9-	=9-	=9-	=9-	=9-
1BB-/	-ct(us)	.	.	1B-\	.	4d\	.
.	.	.	.	.	.	4c/	.
.	.	.	.	.	.	2d\	.
0FF/;	.	.	.	0A\;<	-ct(us)	0c\;<	-ctus.
!LO:LB:g=original	!	!	!	!	!	!LO:PB:g=original	!
=10||-	=10||-	=10||-	=10||-	=10||-	=10||-	=10||-	=10||-
*xywh-#266:785,1054,6213,921	*	*	*	*	*	*xywh-#14:778,676,6319,933	*
*M2/1	*	*M2/1	*	*M2/1	*	*M2/1	*
*met(C|)	*	*met(C|)	*	*met(C|)	*	*met(C|)	*
*	*	*lig	*	*	*	*	*
!	!	!	!	!LO:TX:t=P:problem=kreska pseudotaktowa	!	!	!
1r	.	1F/	San-	1rA	.	0r	.
!LO:TX:t=P:problem=kreska pseudotaktowa	!	!	!	!	!	!	!
2r	.	1A\	.	2.c\	San-	.	.
1F\	San-	.	.	.	.	.	.
!	!	!	!	!LO:TX:t=P:problem=kreska pseudotaktowa	!	!	!
.	.	.	.	4B-\	.	.	.
*	*	*	*	*custos:A	*	*	*
*	*	*Xlig	*	*	*	*	*
!	!	!	!	!LO:LB:g=original	!	!	!
=11-	=11-	=11-	=11-	=11-	=11-	=11-	=11-
*	*	*	*	*xywh-#100:7213,1785,6139,866	*	*	*
*	*	*lig	*	*	*	*	*
!	!	!	!	!	!	!LO:TX:t=P:problem=kreska pseudotaktowa	!
.	.	1c\	.	2A/	.	1r	.
!LO:TX:t=P:problem=kreska pseudotaktowa	!	!	!	!	!	!	!
2E\	.	.	.	2G/	.	.	.
2D/	.	1d\	.	2A/	.	2r	.
!LO:TX:t=P:problem=kreska pseudotaktowa	!	!	!	!LO:TX:t=P:problem=kreska pseudotaktowa	!	!	!
2BB-/	.	.	.	2B-\	.	1f\	San-
*	*	*Xlig	*	*	*	*	*
=12-	=12-	=12-	=12-	=12-	=12-	=12-	=12-
*lig	*	*lig	*	*	*	*	*
1C/	.	1c\	.	1G/	.	.	.
!	!	!	!	!	!	!LO:TX:t=P:problem=kreska pseudotaktowa	!
.	.	.	.	.	.	2e\	.
1D\	.	1f\	.	4F/	.	1d\	.
.	.	.	.	4G/	.	.	.
.	.	.	.	4A/	.	.	.
!	!	!	!	!LO:TX:t=P:problem=kreska pseudotaktowa	!	!	!
.	.	.	.	4B-\	.	.	.
*Xlig	*	*Xlig	*	*	*	*	*
=13-	=13-	=13-	=13-	=13-	=13-	=13-	=13-
*	*	*lig	*	*	*	*	*
2AA/	.	1e\	.	1c\	.	2c/	.
!LO:TX:t=P:problem=kreska pseudotaktowa	!	!	!	!	!	!LO:TX:t=P:problem=kreska pseudotaktowa	!
2C/	.	.	.	.	.	[y2g\	.
*	*	*custos:c	*	*	*	*	*
!	!	!	!	!	!	!LO:N:xstem:cue	!
2D/	.	1d\	.	2A/	.	4g\]	.
.	.	.	.	.	.	4f\	.
!	!	!	!	!LO:TX:t=P:problem=kreska pseudotaktowa	!	!	!
2BB-/	.	.	.	2B-\	-ct(us)	1f\	.
!	!	!LO:LB;g=original	!	!	!	!	!
*	*	*Xlig	*	*	*	*	*
=14-	=14-	=14-	=14-	=14-	=14-	=14-	=14-
*	*	*xywh-#176:7167,2491,5386,947	*	*	*	*	*
!LO:TX:t=P:problem=kreska pseudotaktowa	!	!	!	!	!	!	!
1C/	-ctus	1c\	.	1G/	.	.	.
!	!	!	!	!	!	!LO:TX:t=P:problem=kreska pseudotaktowa	!
.	.	.	.	.	.	2e\	.
*	*ij	*lig	*	*	*ij	*	*
2BB-/	.	1d\	.	2B-\	San-	2.f\	-ctus
2B-\	San-	.	.	1d\	.	.	.
.	.	.	.	.	.	4g\	.
=15-	=15-	=15-	=15-	=15-	=15-	=15-	=15-
4A\	.	1e\	.	.	.	2a\	San-
4B-\	.	.	.	.	.	.	.
!	!	!	!	!LO:TX:t=P:problem=kreska pseudotaktowa	!	!LO:TX:t=P:problem=kreska pseudotaktowa	!
4c\	.	.	.	2c\	.	[y2g\	.
!LO:TX:t=P:problem=kreska pseudotaktowa	!	!	!	!	!	!	!
4A\	.	.	.	.	.	.	.
*	*	*Xlig	*	*	*	*	*
*	*	*lig	*	*	*	*	*
!	!	!	!	!	!	!LO:N:xstem:cue	!
2.B-\	.	1d\	.	2B-\	-ctus	4g\]	.
.	.	.	.	.	.	4f\	.
.	.	.	.	1d\	.	1f\	.
4A\	.	.	.	.	.	.	.
=16-	=16-	=16-	=16-	=16-	=16-	=16-	=16-
!LO:TX:t=P:problem=kreska pseudotaktowa	!	!	!	!	!	!	!
1G\	.	1B-\	.	.	.	.	.
!	!	!	!	!	!	!LO:TX:t=P:problem=kreska pseudotaktowa	!
.	.	.	.	4c\	.	2e\	.
!	!	!	!	!LO:TX:t=P:problem=kreska pseudotaktowa	!	!	!
.	.	.	.	4B-\	.	.	.
*	*	*Xlig	*	*	*Xij	*	*
!	!	!LO:TX:t=P:problem=kreska pseudotaktowa	!	!	!	!LO:TX:t=P:problem=kreska pseudotaktowa	!
2F\	-ctus	1c\	-ctus	2r	.	1f\	-ctus
*	*Xij	*	*	*	*	*	*
1F\	Do-	.	.	1A\	Do-	.	.
=17-	=17-	=17-	=17-	=17-	=17-	=17-	=17-
.	.	1f\	Do-	.	.	2r	.
!LO:TX:t=P:problem=kreska pseudotaktowa	!	!	!	!LO:TX:t=P:problem=kreska pseudotaktowa	!	!	!
2F\	-mi-	.	.	2A/	-mi-	1f\	Do-
1BB-/	-nus	1d\	-mi-	1B-\	-n(us)	.	.
!	!	!	!	!	!	!LO:TX:t=P:problem=kreska pseudotaktowa	!
.	.	.	.	.	.	2f\	-mi-
=18-	=18-	=18-	=18-	=18-	=18-	=18-	=18-
!LO:TX:t=P:problem=kreska pseudotaktowa	!	!LO:TX:t=P:problem=kreska pseudotaktowa	!	!	!	!	!
1BB-/	.	1f\	-nus	2.B-\	De-	1d\	-nus
!	!	!	!	!LO:TX:t=P:problem=kreska pseudotaktowa	!	!	!
.	.	.	.	4A/	.	.	.
*	*	*lig	*	*	*	*	*
1C/	De-	1e\	De-	1G/	.	2.c/	De-
!	!	!	!	!	!	!LO:TX:t=P:problem=kreska pseudotaktowa	!
.	.	.	.	.	.	4B-/	.
=19-	=19-	=19-	=19-	=19-	=19-	=19-	=19-
2D/	-us	1f\	.	2F/	-us	2A/	.
!	!	!	!	!LO:TX:t=P:problem=kreska pseudotaktowa	!	!	!
*	*	*	*	*	*ij	*	*
!LO:TX:t=P:problem=kreska pseudotaktowa	!	!	!	!	!	!	!
2BB-/	.	.	.	2B-\	Do-	2.d\	.
*	*	*Xlig	*	*	*	*	*
2.C/	Sab-	1e\	.	2G/	-mi-	.	.
.	.	.	.	.	.	4c/	.
.	.	.	.	2.G/	-nus	1c\	.
4BB-/	.	.	.	.	.	.	.
=20-	=20-	=20-	=20-	=20-	=20-	=20-	=20-
*custos:AA	*	*	*	*	*	*	*
*	*	*lig	*	*	*	*	*
!LO:TX:t=P:problem=kreska pseudotaktowa	!	!	!	!	!	!	!
1GG/	.	1d\	.	.	.	.	.
.	.	.	.	4A/	.	.	.
!	!	!	!	!LO:TX:t=P:problem=kreska pseudotaktowa	!	!LO:TX:t=P:problem=kreska pseudotaktowa	!
.	.	.	.	2B-\	.	2B-/	.
*xywh-#266:815,1664,6064,837	*	*	*	*	*	*	*
!LO:LB:g=original	!	!	!	!	!	!	!
2AA/	.	1c\	.	1A\	De-	2c/	.
*	*	*	*	*	*	*custos:B-	*
!	!	!	!	!	!	!LO:TX:t=P:problem=kreska pseudotaktowa	!
!LO:TX:t=P:problem=kreska pseudotaktowa	!	!	!	!	!	!	!
2FF/	ba-	.	.	.	.	2A/	.
*	*	*Xlig	*	*	*	*	*
!	!	!	!	!	!	!LO:LB;g=original	!
=21-	=21-	=21-	=21-	=21-	=21-	=21-	=21-
*	*	*	*	*	*	*xywh-#14:1260,1412,5726,826	*
1BB-/	-oth	1d\	.	2F/	.	1B-/	.
!	!	!	!	!LO:TX:t=P:problem=kreska pseudotaktowa	!	!	!
.	.	.	.	2f\	-us	.	.
*	*	*	*	*	*Xij	*	*
!	!	!LO:TX:t=P:problem=kreska pseudotaktowa	!	!	!	!	!
2FF/	.	1c\	-us	2.f\	Sab-	2.A/	.
!LO:TX:t=P:problem=kreska pseudotaktowa	!	!	!	!	!	!	!
2F\	Sab-	.	.	.	.	.	.
*	*	*	*	*custos:d	*	*	*
!	!	!	!	!LO:TX:t=P:problem=kreska pseudotaktowa	!	!	!
!	!	!	!	!	!	!LO:TX:t=P:problem=kreska pseudotaktowa	!
.	.	.	.	4e\	.	4G/	.
!	!	!	!	!LO:LB:g=original	!	!	!
=22-	=22-	=22-	=22-	=22-	=22-	=22-	=22-
*	*	*	*	*xywh-#100:7263,2444,6038,831	*	*	*
*	*	*lig	*	*	*	*	*
2.F\	-ba-	1A\	Sab-	2d\	-ba-	2F/	-us
!	!	!	!	!LO:TX:t=P:problem=kreska pseudotaktowa	!	!LO:TX:t=P:problem=kreska pseudotaktowa	!
.	.	.	.	2c\	.	2f\	Sab-
4E\	.	.	.	.	.	.	.
2.D/	.	1F/	.	2B-\	.	2.f\	-ba-
.	.	.	.	2.A/	.	.	.
!LO:TX:t=P:problem=kreska pseudotaktowa	!	!	!	!	!	!	!
4C/	.	.	.	.	.	4e\	.
*	*	*Xlig	*	*	*	*	*
=23-	=23-	=23-	=23-	=23-	=23-	=23-	=23-
*	*	*lig	*	*	*	*	*
2BB-/	.	1B-\	.	.	.	2d\	.
.	.	.	.	4G/	.	.	.
!	!	!	!	!LO:TX:t=P:problem=kreska pseudotaktowa	!	!LO:TX:t=P:problem=kreska pseudotaktowa	!
2GG/	.	.	.	[y2G/	.	2B-/	.
!	!	!	!	!LO:N:xstem:cue	!	!	!
2AA/	.	1A\	.	4G/]	.	2.c/	.
.	.	.	.	4F/	.	.	.
!LO:TX:t=P:problem=kreska pseudotaktowa	!	!	!	!	!	!	!
2FF/	.	.	.	1F/	.	.	.
.	.	.	.	.	.	4d\	.
*	*	*Xlig	*	*	*	*	*
=24-	=24-	=24-	=24-	=24-	=24-	=24-	=24-
*	*	*lig	*	*	*	*	*
2.C/	.	1G/	.	.	.	4e\	.
.	.	.	.	.	.	4f\	.
!	!	!	!	!LO:TX:t=P:problem=kreska pseudotaktowa	!	!LO:TX:t=P:problem=kreska pseudotaktowa	!
.	.	.	.	2E/	oth	[y2g\	.
4BB-/	.	.	.	.	.	.	.
!	!	!	!	!	!	!LO:N:xstem:cue	!
*	*	*	*	*	*ij	*	*
2AA/	.	1A\	.	2F/	Sab-	4g\]	.
.	.	.	.	.	.	4f\	.
!LO:TX:t=P:problem=kreska pseudotaktowa	!	!	!	!	!	!	!
2FF/	.	.	.	1c\	.	1f\	.
*	*	*Xlig	*	*	*	*	*
=25-	=25-	=25-	=25-	=25-	=25-	=25-	=25-
1C/	-oth.	1G/	-ba-	.	.	.	.
.	.	.	.	2c\	-ba-	2e\	.
0FF/;	.	0F/	-oth.	0A\;<	-oth	0f\;	-oth.
*	*	*	*	*	*Xij	*	*
!	!	!LO:LB:g=original	!	!	!	!	!
=26||-	=26||-	=26||-	=26||-	=26||-	=26||-	=26||-	=26||-
*	*	*xywh-#176:7187,3138,5717,937	*	*	*	*	*
*M2/1	*	*	*	*M2/1	*	*M2/1	*
*met(C|)	*	*met(C|)	*	*met(C|)	*	*met(C|)	*
!	!	!LO:TX:t=P:problem=brak oznaczenia menzuralnego	!	!	!	!	!
2.AA/	Ple-	1A\	Ple-	2.A/	Ple-	4A/	Ple-
.	.	.	.	.	.	4B-/	.
.	.	.	.	.	.	4c/	.
!	!	!	!	!LO:TX:t=P:problem=kreska pseudotaktowa	!	!LO:TX:t=P:problem=kreska pseudotaktowa	!
4BB-/	.	.	.	4G/	.	4d\	.
!	!	!LO:TX:t=P:problem=kreska pseudotaktowa	!	!	!	!	!
2C/	.	1G/	-ni	4E/	.	2e\	.
.	.	.	.	4F/	.	.	.
!LO:TX:t=P:problem=kreska pseudotaktowa	!	!	!	!LO:TX:t=P:problem=kreska pseudotaktowa	!	!LO:TX:t=P:problem=kreska pseudotaktowa	!
2BB-/	-ni	.	.	2G/	.	2d\	.
=27-	=27-	=27-	=27-	=27-	=27-	=27-	=27-
!	!	!LO:TX:t=P:problem=kreska pseudotaktowa	!	!	!	!	!
2AA/	.	1F/	Sunt	2A/	.	2f\	-ni
2BB-/	Sunt	.	.	1F/	ni	1d\	Sunt
*	*	*lig	*	*	*	*	*
!LO:TX:t=P:problem=kreska pseudotaktowa	!	!	!	!	!	!	!
1GG/	cae-	1G/	cae-	.	.	.	.
!	!	!	!	!LO:TX:t=P:problem=kreska pseudotaktowa	!	!	!
.	.	.	.	2E/	Sunt	4c/	.
!	!	!	!	!	!	!LO:TX:t=P:problem=kreska pseudotaktowa	!
.	.	.	.	.	.	4B-/	.
=28-	=28-	=28-	=28-	=28-	=28-	=28-	=28-
1FF/	-li	1A\	.	2F/	.	2A/	.
!	!	!	!	!LO:TX:t=P:problem=kreska pseudotaktowa	!	!LO:TX:t=P:problem=kreska pseudotaktowa	!
.	.	.	.	2F/	cae-	2c/	cae-
*	*	*Xlig	*	*	*	*	*
!	!	!LO:TX:t=P:problem=kreska pseudotaktowa	!	!	!	!	!
2FF/	.	1A\	-li	2.F/	-li	2.c/	-li
1F\	et	.	.	.	.	.	.
!	!	!	!	!LO:TX:t=P:problem=kreska pseudotaktowa	!	!	!
.	.	.	.	4G/	.	4B-/	.
=29-	=29-	=29-	=29-	=29-	=29-	=29-	=29-
!	!	!LO:TX:t=P:problem=kreska pseudotaktowa	!	!	!	!	!
.	.	1c\	et	2A/	.	4c/	.
*	*	*	*	*	*	*custos:e	*
.	.	.	.	.	.	4d\	.
*custos:D	*	*	*	*	*	*	*
*	*	*	*	*	*	*xywh-#14:1255,2051,5711,770	*
!LO:TX:t=P:problem=kreska pseudotaktowa	!	!	!	!	!	!LO:LB:g=original	!
!	!	!	!	!LO:TX:t=P:problem=kreska pseudotaktowa	!	!LO:TX:t=P:problem=kreska pseudotaktowa	!
2E\	ter-	.	.	2G/	.	2e\	.
*	*	*lig	*	*	*	*	*
*xywh-#266:827,2227,6159,867	*	*	*	*	*	*	*
!LO:LB:g=original	!	!	!	!	!	!	!
2D/	.	1d\	ter-	2A/	et	2.f\	et
!	!	!	!	!LO:TX:t=P:problem=kreska pseudotaktowa	!	!	!
2BB-/	.	.	.	2B-\	.	.	.
.	.	.	.	.	.	8e\L	.
.	.	.	.	.	.	8d\J	.
=30-	=30-	=30-	=30-	=30-	=30-	=30-	=30-
!	!	!	!	!	!	!LO:TX:t=P:problem=kreska pseudotaktowa	!
2C/	.	1e\	.	2G/	.	1c\	.
!LO:TX:t=P:problem=kreska pseudotaktowa	!	!	!	!	!	!	!
2AA/	.	.	.	2A/	.	.	.
*	*	*Xlig	*	*	*	*	*
*	*	*lig	*	*	*	*	*
*	*	*	*	*custos:G	*	*	*
!	!	!	!	!LO:TX:t=P:problem=kreska pseudotaktowa	!	!	!
2.BB-/	.	1d\	.	1F/	ter-	2.B-/	.
4AA/	.	.	.	.	.	4c/	.
!	!	!	!	!LO:LB:g=original	!	!	!
=31-	=31-	=31-	=31-	=31-	=31-	=31-	=31-
*	*	*	*	*xywh-#100:7289,2966,5196,892	*	*	*
!LO:TX:t=P:problem=kreska pseudotaktowa	!	!	!	!	!	!	!
1GG/	-ra	1B-\	.	2G/	.	2.d\	ter-
!	!	!	!	!LO:TX:t=P:problem=kreska pseudotaktowa	!	!	!
.	.	.	.	2d\	-ra	.	.
.	.	.	.	.	.	8c/L	.
!	!	!	!	!	!	!LO:TX:t=P:problem=kreska pseudotaktowa	!
.	.	.	.	.	.	8B-/J	.
*	*	*Xlig	*	*	*	*	*
!	!	!LO:TX:t=P:problem=kreska pseudotaktowa	!	!	!	!LO:TX:t=P:problem=kreska pseudotaktowa	!
2FF/	.	1c\	-ra	2.f\	glo-	1A/	-ra
2F\	.	.	.	.	.	.	.
.	.	.	.	4e\	.	.	.
=32-	=32-	=32-	=32-	=32-	=32-	=32-	=32-
2.F\	glo-	1f\	glo-	2d\	.	2r	.
!	!	!	!	!LO:TX:t=P:problem=kreska pseudotaktowa	!	!LO:TX:t=P:problem=kreska pseudotaktowa	!
.	.	.	.	2c\	.	2c/	glo-
!LO:TX:t=P:problem=kreska pseudotaktowa	!	!	!	!	!	!	!
4E\	.	.	.	.	.	.	.
*	*	*lig	*	*	*	*	*
2.D/	-ri-	1f\	-ri-	2B-\	ri-	1d\	-ri-
.	.	.	.	4A/	-a	.	.
8C/L	.	.	.	4G/	.	.	.
!LO:TX:t=P:problem=kreska pseudotaktowa	!	!	!	!	!	!	!
8BB-/J	.	.	.	.	.	.	.
=33-	=33-	=33-	=33-	=33-	=33-	=33-	=33-
!	!	!	!	!LO:TX:t=P:problem=kreska pseudotaktowa	!	!	!
2AA/	-a	1c\	.	1A\	tu-	2e\	.
2FF/	.	.	.	.	.	1f\	-a
*	*	*Xlig	*	*	*	*	*
*	*	*lig	*	*	*	*	*
!LO:TX:t=P:problem=kreska pseudotaktowa	!	!	!	!	!	!	!
1C/	tu-	1c\	.	2G/	-a	.	.
!	!	!	!	!LO:TX:t=P:problem=kreska pseudotaktowa	!	!LO:TX:t=P:problem=kreska pseudotaktowa	!
.	.	.	.	2c\	.	2e\	tu-
=34-	=34-	=34-	=34-	=34-	=34-	=34-	=34-
!	!	!	!	!	!	!LO:TX:t=P:problem=kreska pseudotaktowa	!
*	*	*	*	*	*ij	*	*
2FF/	-a	1A\	.	2.c\	glo-	1f\	-a
2F\	.	.	.	.	.	.	.
.	.	.	.	4B-\	.	.	.
*	*ij	*Xlig	*	*	*	*	*
!	!	!LO:TX:t=P:problem=kreska pseudotaktowa	!	!	!	!	!
2.F\	glo-	1F/	-a	2.A/	.	2r	.
!	!	!	!	!	!	!LO:TX:t=P:problem=kreska pseudotaktowa	!
*	*	*	*	*	*	*	*ij
.	.	.	.	.	.	2f\	glo-
!LO:TX:t=P:problem=kreska pseudotaktowa	!	!	!	!LO:TX:t=P:problem=kreska pseudotaktowa	!	!	!
4E\	.	.	.	4G/	.	.	.
=35-	=35-	=35-	=35-	=35-	=35-	=35-	=35-
*	*	*lig	*	*	*	*	*
2D/	ri-	1B-\	tu-	2F/	ri-	2f\	-ri-
!	!	!	!	!	!	!LO:TX:t=P:problem=kreska pseudotaktowa	!
2BB-/	.	.	.	2f\	.	2d\	.
2C/	-a	1A\	.	2c\	-a	2e\	-a
!LO:TX:t=P:problem=kreska pseudotaktowa	!	!	!	!LO:TX:t=P:problem=kreska pseudotaktowa	!	!	!
2D/	.	.	.	2A/	.	2f\	.
*	*	*Xlig	*	*	*	*	*
=36-	=36-	=36-	=36-	=36-	=36-	=36-	=36-
*	*	*lig	*	*	*	*	*
2BB-/	tu-	1G/	.	2d\	tu-	4g\	tu-
.	.	.	.	.	.	4f\	.
2C/	.	.	.	4c\	.	4e\	.
!	!	!	!	!	!	!LO:TX:t=P:problem=kreska pseudotaktowa	!
.	.	.	.	4B-\	.	4d\	.
2AA/	.	1A\	.	0c\	.	2c/	.
!LO:TX:t=P:problem=kreska pseudotaktowa	!	!	!	!	!	!	!
2FF/	.	.	.	.	.	1f\	.
*	*	*Xlig	*	*	*	*	*
=37-	=37-	=37-	=37-	=37-	=37-	=37-	=37-
1C/	.	1G/	.	.	.	.	.
!	!	!	!	!	!	!LO:TX:t=P:problem=kreska pseudotaktowa	!
.	.	.	.	.	.	2e\	.
!LO:TX:t=P:problem=kreska pseudotaktowa	!	!	!	!LO:TX:t=P:problem=kreska pseudotaktowa	!	!LO:TX:t=P:problem=kreska pseudotaktowa	!
1FF/	-a	00.F/	-a.	1A\	-a	1f\	-a
*	*	*	*	*	*Xij	*	*Xij
=38-	=38-	=38-	=38-	=38-	=38-	=38-	=38-
2rBB	.	.	.	2rF	.	2r	.
!	!	!	!	!	!	!LO:TX:t=P:problem=kreska pseudotaktowa	!
2FF/	glo-	.	.	2A/	glo-	2c/	glo-
2FF/	-ri-	.	.	2A/	-ri-	2c/	-ri-
!	!	!	!	!LO:TX:t=P:problem=kreska pseudotaktowa	!	!	!
2FF/	-a	.	.	2A/	-a	2c/	-a
=39-	=39-	=39-	=39-	=39-	=39-	=39-	=39-
1BB-/	tu-	.	.	1B-\	tu-	1d\	tu-
0FF/;	-a	.	.	0A\;;	-a	0c\;	-a.
*	*Xij	*	*	*	*	*	*
!LO:LB;g=original	!	!LO:LB:g=original	!	!LO:LB:g=original	!	!LO:LB:g=original	!
=40||-	=40||-	=40||-	=40||-	=40||-	=40||-	=40||-	=40||-
*xywh-#266:880,2837,6231,867	*	*xywh-#176:7227,3664,5982,1057	*	*xywh-#100:7284,3580,5784,887	*	*xywh-#14:1245,2594,5751,831	*
*M2/1	*	*	*	*M2/1	*	*M2/1	*
*met(C|)	*	*met(C|)	*	*met(C|)	*	*met(C|)	*
!	!	!LO:TX:t=P:problem=brak oznaczenia menzuralnego	!	!	!	!LO:TX:t=P:problem=kreska pseudotaktowa	!
1.F\	O-	1A\	O-	2.c\	O-	1r	.
!	!	!	!	!LO:TX:t=P:problem=kreska pseudotaktowa	!	!	!
.	.	.	.	4B-\	.	.	.
*	*	*lig	*	*	*	*	*
.	.	1c\	-san-	2A/	.	2r	.
!LO:TX:t=P:problem=kreska pseudotaktowa	!	!	!	!	!	!	!
2E\	.	.	.	1G/	.	1c\	O-
=41-	=41-	=41-	=41-	=41-	=41-	=41-	=41-
1D\	-ſan-	1d\	.	.	.	.	.
!	!	!	!	!LO:TX:t=P:problem=kreska pseudotaktowa	!	!LO:TX:t=P:problem=kreska pseudotaktowa	!
.	.	.	.	2F/	.	2B-/	.
*	*	*Xlig	*	*	*	*	*
!LO:TX:t=P:problem=kreska pseudotaktowa	!	!	!	!	!	!	!
1C/	-na	1e\	.	1G/	-ſan-	1c\	-ſan-
=42-	=42-	=42-	=42-	=42-	=42-	=42-	=42-
*	*	*lig	*	*	*	*	*
!	!	!	!	!LO:TX:t=P:problem=kreska pseudotaktowa	!	!LO:TX:t=P:problem=kreska pseudotaktowa	!
2D/	.	1d\	.	1F/	-na	1f\	-na
1BB-/	.	.	.	.	.	.	.
.	.	1B-\	.	1.G/	in	2d\	in
!LO:TX:t=P:problem=kreska pseudotaktowa	!	!	!	!	!	!	!
2GG/	.	.	.	.	.	4g\	ex-
!	!	!	!	!	!	!LO:TX:t=P:problem=kreska pseudotaktowa	!
.	.	.	.	.	.	4f\	.
*	*	*Xlig	*	*	*	*	*
=43-	=43-	=43-	=43-	=43-	=43-	=43-	=43-
!	!	!LO:TX:t=P:problem=kreska pseudotaktowa	!	!	!	!	!
4C/	.	1c\	-na	.	.	4e\	.
4BB-/	.	.	.	.	.	4d\	.
4AA/	.	.	.	4A/	.	4c/	.
!LO:TX:t=P:problem=kreska pseudotaktowa	!	!	!	!LO:TX:t=P:problem=kreska pseudotaktowa	!	!LO:TX:t=P:problem=kreska pseudotaktowa	!
4GG/	.	.	.	4B-\	ex-	4B-/	.
2FF/	.	1f\	in	4c\	.	4A/	.
.	.	.	.	4B-\	.	4G/	.
4F\	in	.	.	4A/	.	1F/	-ſis
!LO:TX:t=P:problem=kreska pseudotaktowa	!	!	!	!	!	!	!
4E\	.	.	.	4G/	.	.	.
=44-	=44-	=44-	=44-	=44-	=44-	=44-	=44-
*	*	*lig	*	*	*	*	*
4D/	ex-	1f\	ex-	2A/	.	.	.
4C/	.	.	.	.	.	.	.
!LO:TX:t=P:problem=kreska pseudotaktowa	!	!	!	!LO:TX:t=P:problem=kreska pseudotaktowa	!	!	!
2BB-/	.	.	.	2B-\	-cel-	1f\	in
1C/	-cel-	1c\	.	1G/	-ſis	.	.
!	!	!	!	!	!	!LO:TX:t=P:problem=kreska pseudotaktowa	!
.	.	.	.	.	.	2e\	ex-
*	*	*Xlig	*	*	*	*	*
=45-	=45-	=45-	=45-	=45-	=45-	=45-	=45-
*	*	*lig	*	*	*ij	*	*
!LO:TX:t=P:problem=kreska pseudotaktowa	!	!	!	!	!	!	!
1FF/	-ſis	1A\	.	2F/	.	2.f\	-cel-
!	!	!	!	!LO:TX:t=P:problem=kreska pseudotaktowa	!	!	!
.	.	.	.	2C/	in	.	.
.	.	.	.	.	.	4e\	.
*	*ij	*	*	*	*	*	*
2BB-/	in	1G/	.	2D/	ex-	2d\	.
!	!	!	!	!	!	!LO:TX:t=P:problem=kreska pseudotaktowa	!
2AA/	.	.	.	1F/	.	2c/	.
*	*	*Xlig	*	*	*	*	*
=46-	=46-	=46-	=46-	=46-	=46-	=46-	=46-
*	*	*lig	*	*	*	*	*
!LO:TX:t=P:problem=kreska pseudotaktowa	!	!	!	!	!	!	!
1GG/	ex-	1B-\	-cel-	.	.	2B-/	.
!	!	!	!	!LO:TX:t=P:problem=kreska pseudotaktowa	!	!	!
.	.	.	.	2E/	-cel-	2G/	.
4FF/	.	1A\	.	2F/	-ſis	2.c/	.
4GG/	.	.	.	.	.	.	.
4AA/	.	.	.	1c\	in	.	.
!LO:TX:t=P:problem=kreska pseudotaktowa	!	!	!	!	!	!	!
4BB-/	.	.	.	.	.	4d\	.
*	*	*Xlig	*	*	*	*	*
=47-	=47-	=47-	=47-	=47-	=47-	=47-	=47-
*	*	*lig	*	*	*	*	*
2C/	.	1G/	.	.	.	4e\	.
.	.	.	.	.	.	4f\	.
!	!	!	!	!LO:TX:t=P:problem=kreska pseudotaktowa	!	!LO:TX:t=P:problem=kreska pseudotaktowa	!
2BB-/	.	.	.	2d\	.	[y2g\	.
!	!	!	!	!	!	!LO:N:xstem:cue	!
2AA/	.	1A\	.	2c\	ex-	4g\]	.
.	.	.	.	.	.	4f\	.
!LO:TX:t=P:problem=kreska pseudotaktowa	!	!	!	!	!	!	!
2D/	.	.	.	2A/	.	1f\	-ſis
*	*	*Xlig	*	*	*	*	*
=48-	=48-	=48-	=48-	=48-	=48-	=48-	=48-
2BB-/	-cel-	1G/	-ſis.	2d\	-cel-	.	.
!LO:TX:t=P:problem=kreska pseudotaktowa	!	!	!	!	!	!LO:TX:t=P:problem=kreska pseudotaktowa	!
2C/	.	.	.	2c\	.	2e\	.
!	!	!	!	!LO:TX:t=P:problem=kreska pseudotaktowa	!	!LO:TX:t=P:problem=kreska pseudotaktowa	!
1FF/	-ſis	00.F/	.	1A\	-ſis	1f\	.
*	*	*	*	*	*Xij	*	*
=49-	=49-	=49-	=49-	=49-	=49-	=49-	=49-
2rBB	.	.	.	2r	.	2r	.
!LO:TX:t=P:problem=kreska pseudotaktowa	!	!	!	!LO:TX:t=P:problem=kreska pseudotaktowa	!	!	!
2BB-/	in	.	.	2B-\	in	2d\	in
2AA/	.	.	.	2c\	.	2c/	.
!	!	!	!	!	!	!LO:TX:t=P:problem=kreska pseudotaktowa	!
2FF/	ex-	.	.	2A/	ex-	2f\	ex-
=50-	=50-	=50-	=50-	=50-	=50-	=50-	=50-
1BB-/	-cel-	.	.	1B-\	-cel-	2.d\	-cel-
.	.	.	.	.	.	4e\	-ſis.
0FF/;	-ſis	.	.	0c\;<	-ſis.	0f\;<	.
==	==	==	==	==	==	==	==
*-	*-	*-	*-	*-	*-	*-	*-
!!!system-decoration: [(s1,s2,s3,s4)]
!!!RDF**kern: > = above
!!!RDF**kern: < = below
!!!EED: Leszek Kubiak
!!!EEV: 2021-03-08
!!!ENC: Andrzej Kubiczek
!!!END: 2021-02-23
!!!ENC-iiif: Mateusz Mrugas
!!!END-iiif: 2022-09-06
!!!YEC: Copyright 2022 Narodowy Instytut Fryderyka Chopina (https://polishscores.org)
!!!YEM: License CC-BY-4.0 (https://creativecommons.org/licenses/by/4.0)
